X: 9990
T: Devil's Polska, The
R: waltz
M: 3/4
K: Edorian
|:E2 e2 d2 B2 d|cB A2B2 G2F|E2G2E2 FE^D|E2 F2 G2 AB2|
E2 e2 d2 B2d|cB A2 B2 G2F|E2 G2E2 FE^D|E2 E7:|
|:E2 G2 E2 F2 ^D|E2 G2 E2 F2 ^D|E2 G2 E2 FE^D|E2 F2 G2 AB2|
E2 G2 E2 F2 ^D|E2G2 E2 F2 ^D|E2 G2 E2 FE^D|E2 E7:|

